src/resources/assets/chevron-up.svg

<svg xmlns="http://www.w3.org/2000/svg" width="16" height="16"><path d="M 3.144531 10.355469 C 3.339844 10.546875 3.660156 10.546875 3.855469 10.355469 L 8 6.207031 L 12.144531 10.355469 C 12.339844 10.546875 12.660156 10.546875 12.855469 10.355469 C 13.046875 10.160156 13.046875 9.839844 12.855469 9.644531 L 8.355469 5.144531 C 8.160156 4.953125 7.839844 4.953125 7.644531 5.144531 L 3.144531 9.644531 C 2.953125 9.839844 2.953125 10.160156 3.144531 10.355469 Z M 3.144531 10.355469" fill="#ddd"/></svg>

<svg xmlns="http://www.w3.org/2000/svg" width="16" height="16"><path d="M3.145 10.355a.512.512 0 00.71 0L8 6.207l4.145 4.148a.512.512 0 00.71 0 .512.512 0 000-.71l-4.5-4.5a.512.512 0 00-.71 0l-4.5 4.5a.512.512 0 000 .71zm0 0" fill="#ddd"/></svg>
